packages/foundations/assets/icons/functional/images/notification/bell_disabled_14.svg

<svg width="14" height="14" viewBox="0 0 14 14" fill="none" xmlns="http://www.w3.org/2000/svg">
<g clip-path="url(#clip0_187_143)">
<path fill-rule="evenodd" clip-rule="evenodd" d="M10.9565 5.99269L10.9565 8.48876C10.9565 9.26581 11.0429 9.48165 11.4173 9.77902L11.5716 9.89562C11.7903 10.0459 11.8997 10.2644 11.8997 10.4829C11.8997 10.8107 11.6546 11.1795 11.2709 11.1795H8.40064V11.1931C8.40064 11.9717 7.7719 12.6 6.9928 12.6C6.32222 12.6 5.68673 12.0615 5.59607 11.353L7.14988 9.79929L9.74009 9.79999L9.68813 9.59231C9.60944 9.24411 9.56994 8.87235 9.5634 8.27791L9.56208 7.38709L10.9565 5.99269ZM6.9928 1.39999C8.32935 1.39999 9.41552 1.95216 10.1106 2.89891L10.7047 2.30502C10.9781 2.03165 11.4213 2.03165 11.6946 2.30502C11.947 2.55736 11.9946 3.00715 11.6946 3.29497C8.89586 6.09629 6.09586 8.89629 3.29463 11.695C3.02127 11.9683 2.57805 11.9683 2.30468 11.695C2.05234 11.4426 2.00655 11.0497 2.30468 10.705C2.42501 10.5821 2.54637 10.4604 2.66876 10.3397L2.69589 10.2809C2.8988 9.81938 3.02912 9.31024 3.02912 8.44777V5.94828C3.02912 3.23026 4.5736 1.39999 6.9928 1.39999ZM7.00652 2.80685C5.46197 2.80685 4.43689 3.88584 4.43689 5.77074V8.10634C4.43689 8.27612 4.43425 8.43272 4.42808 8.58103L9.08561 3.92321C8.65014 3.19897 7.93345 2.80685 7.00652 2.80685Z" fill="#1A1C1F"/>
</g>
<defs>
<clipPath id="clip0_187_143">
<rect width="14" height="14" fill="white"/>
</clipPath>
</defs>
</svg>

<svg xmlns="http://www.w3.org/2000/svg" width="14" height="14" fill="none"><g clip-path="url(#a)"><path fill="#1A1C1F" fill-rule="evenodd" d="M10.957 5.993v2.496c0 .777.086.993.46 1.29l.155.117c.218.15.328.368.328.587 0 .328-.245.697-.63.697H8.4v.013c0 .779-.628 1.407-1.407 1.407-.67 0-1.306-.538-1.397-1.247L7.15 9.799l2.59.001-.052-.208c-.079-.348-.118-.72-.125-1.314v-.89zM6.993 1.4c1.336 0 2.423.552 3.118 1.499l.594-.594a.7.7 0 0 1 .99 0c.252.252.3.702 0 .99l-8.4 8.4a.7.7 0 0 1-.99 0c-.253-.252-.298-.645 0-.99q.18-.185.364-.365l.027-.06c.203-.46.333-.97.333-1.832v-2.5C3.03 3.23 4.574 1.4 6.993 1.4m.014 1.407c-1.545 0-2.57 1.079-2.57 2.964v2.335q0 .254-.009.475l4.658-4.658C8.65 3.2 7.933 2.807 7.006 2.807" clip-rule="evenodd"/></g><defs><clipPath id="a"><path fill="#fff" d="M0 0h14v14H0z"/></clipPath></defs></svg>
